X:1
T:Mighty Triumph, 76.76 D
T:Mighty Triumph, 76.76 D
T:Robert Frederick Smith, 1894
T:Public Domain Courtesy of the Cyber Hymnal™
C:Robert Frederick Smith, 1894
Z:Public Domain
Z:Courtesy of the Cyber Hymnal™
%%score ( 1 2 ) ( 3 4 )
L:1/8
Q:1/4=113
M:4/4
K:Bb
V:1 treble 
V:2 treble 
V:3 bass 
V:4 bass 
V:1
 [FA]2 | [FB]2 [Fd]2 [Ge]2 ([Gc][FB]) | f3 z e [Bd]2 (BA) | [EG]2 (cB) A2 A2 | B6 A2 | %5
 B2 d2 [Ge]2 (cB) | [FA]2 [Gd]2 [Ac]2 (F=E) | [B,D]2 (AG) [CF]2 [C=E]2 | [CF]6 (de) | %9
 [B,d]2 [FB]2 [EG]2 [Ec]2 | (F2 GA) [DB]2 [Gd]2 | [Ac]3 [GB] [FA]2 [=EG]2 x | F6 (FE) | %13
 (DF) BA (Gd) (ed) | [Fc]2 F4 [Ff]2 | (GA) B2 [FB]2 [FA]2 | [FB]6 |] %17
V:2
 x2 | x8 | B2 (A2 x F2) x2 | x2 G2 (FG) (FE) | (D2 E2 D2) (FE) | (DF) (BA) x G2 x | x6 C2 | %7
 x2 D2 x4 | x6 B,2 | x8 | E4 x4 | x9 | F6 C2 | D2 F2 E2 E2 | x2 F4 x2 | E2 (FG) x4 | x6 |] %17
V:3
 C2 | D2 B,2 E2 [DF] x | [CF]4 [B,F]2 [D,D]2 x | (G,B,) (ED) (CE) (DC) | (B,2 G,2 B,2) [F,C]2 | %5
 [B,,D]2 [B,,F,]2 (G,B,) (ED) | [F,C]2 [=E,B,]2 [F,A,]2 [A,,A,]2 | %7
 (D,F,) [B,,B,]2 [C,A,]2 [C,G,]2 | [F,,A,]6 ([B,,F,][E,G,]) | [B,,F,]2 [D,B,]2 [E,B,]2 [C,C]2 | %10
 (B,A,B,C) [G,B,]2 [=E,B,]2 | (A,F) (=ED) C3 z B, | [F,A,]6 [A,,A,]2 | %13
 [B,,F,]2 (D,F,) [E,B,]2 (CB,) | [F,A,]2 [F,A,]4 [D,B,]2 | [E,B,]2 ([D,D][E,C]) [F,C]2 [F,C]2 | %16
 [B,,D]6 |] %17
V:4
 (F,E,) | (D,F,) B,A, (G,B,) E x | x9 | E,2 E,2 F,2 F,2 | B,,6 x2 | x4 E,2 E,2 | x8 | B,,2 x6 | %8
 x8 | x8 | F,4 x4 | F,2 B,,2 C,2 C,2 x | x8 | x2 D,2 x C,2 x | x8 | x8 | x6 |] %17

